icons/svg/launch.svg

﻿<?xml version="1.0" encoding="utf-8"?>
<!DOCTYPE svg PUBLIC "-//W3C//DTD SVG 1.1//EN" "http://www.w3.org/Graphics/SVG/1.1/DTD/svg11.dtd">
<svg xmlns="http://www.w3.org/2000/svg" xmlns:xlink="http://www.w3.org/1999/xlink" version="1.1" baseProfile="full" width="24" height="24" viewBox="0 0 24.00 24.00" enable-background="new 0 0 24.00 24.00" xml:space="preserve">
	<path fill="#000000" fill-opacity="1" stroke-width="0.2" stroke-linejoin="round" d="M 13.9994,2.99805L 13.9994,4.99805L 17.5854,4.99805L 7.7564,14.826L 9.1704,16.241L 18.9994,6.41205L 18.9994,9.99805L 20.9994,9.99805L 20.9994,2.99805M 18.9994,18.998L 4.9994,18.998L 4.9994,4.99805L 11.9994,4.99805L 11.9994,2.99805L 4.9994,2.99805C 3.8944,2.99805 2.9994,3.89404 2.9994,4.99805L 2.9994,18.998C 2.9994,20.1021 3.8944,20.998 4.9994,20.998L 18.9994,20.998C 20.1034,20.998 20.9994,20.1021 20.9994,18.998L 20.9994,11.998L 18.9994,11.998L 18.9994,18.998 Z "/>
</svg>

<svg xmlns="http://www.w3.org/2000/svg" version="1.1" baseProfile="full" width="24" height="24" viewBox="0 0 24.00 24.00" xml:space="preserve"><path fill="#000" fill-opacity="1" stroke-width=".2" stroke-linejoin="round" d="M14 2.998v2h3.585l-9.83 9.828L9.17 16.24 19 6.413v3.586h2v-7m-2 16H5v-14h7v-2H5c-1.106 0-2 .896-2 2v14c0 1.104.894 2 2 2h14c1.103 0 2-.896 2-2v-7h-2v7z"/></svg>
